src/epub/images/titlepage.svg

<?xml version="1.0" encoding="utf-8"?>
<svg xmlns="http://www.w3.org/2000/svg" xmlns:svg="http://www.w3.org/2000/svg" version="1.1" viewBox="0 0 1400 440">
	<title>The titlepage for the Standard Ebooks edition of King Solomon’s Mines, by H. Rider Haggard</title>
	<g>
		<path d="m 639.72807,130 -35.92983,-40.608188 31.06433,-36.584796 -21.33333,0 -26.47953,31.532164 0,-31.532164 -17.59065,0 0,77.192984 17.59065,0 0,-32.748539 L 615.49415,130 l 24.23392,0 z"/>
		<path d="m 665.69737,52.807016 -17.59065,0 0,77.192984 17.59065,0 0,-77.192984 z"/>
		<path d="m 699.57163,82.093566 0.18714,0 L 730.44883,130 l 17.59064,0 0,-77.192984 -17.59064,0 0,47.906434 -0.18714,0 -30.69006,-47.906434 -17.59064,0 0,77.192984 17.59064,0 0,-47.906434 z"/>
		<path d="m 834.0848,86.771929 -35.64912,0 0,13.567251 17.77778,0 c 0,9.45029 -8.32749,14.87719 -16.74854,14.87719 -10.8538,0 -19.64912,-10.66666 -19.64912,-23.766078 0,-13.380117 8.79532,-24.140352 19.64912,-24.140352 6.83041,0 12.72515,2.713451 17.21637,9.918129 L 828.19007,64.59649 c -6.73685,-8.140351 -16.18714,-13.192983 -29.75439,-13.192983 -21.7076,0 -37.61404,17.871346 -37.61404,40.046785 0,22.081868 16.84211,39.953218 37.61404,39.953218 15.15789,0 31.4386,-8.32749 35.64912,-27.88304 l 0,-16.748541 z"/>
	</g>
	<g>
		<path d="m 221.53654,151.40351 c -12.44444,0 -25.16959,9.16959 -25.16959,23.57895 0,8.04678 5.4269,15.25146 14.69006,19.83625 9.16959,4.5848 17.40351,7.11111 17.40351,12.72515 0,7.20468 -7.29825,7.57895 -11.1345,7.57895 -8.60819,0 -18.90059,-8.70176 -18.90059,-8.70176 l -8.79532,14.78363 c 0,0 10.94737,10.19883 29.00585,10.19883 15.06432,0 29.09941,-6.45614 29.09941,-24.88889 0,-10.10526 -9.45029,-17.40351 -18.05848,-21.05263 -8.79532,-3.74269 -16.09356,-6.83041 -16.09356,-11.13451 0,-4.21052 3.18128,-6.92397 9.16959,-6.92397 7.95321,0 15.62573,5.33333 15.62573,5.33333 l 7.11111,-14.03509 c 0,0 -9.91813,-7.29824 -23.95322,-7.29824 z"/>
		<path d="m 257.4956,191.35672 c 0,22.54971 16.09357,40.04679 38.92398,40.04679 22.17544,0 38.83041,-17.49708 38.83041,-40.04679 0,-22.5497 -17.40351,-39.95321 -38.83041,-39.95321 -21.23977,0 -38.92398,17.40351 -38.92398,39.95321 z m 18.99415,0 c 0,-11.50877 6.36258,-23.01754 19.92983,-23.01754 13.66082,0 19.83626,11.50877 19.83626,23.01754 0,11.50878 -5.80117,23.01755 -19.83626,23.01755 -14.40936,0 -19.92983,-11.50877 -19.92983,-23.01755 z"/>
		<path d="m 365.60233,152.80702 -17.59065,0 0,77.19298 44.16375,0 0,-15.4386 -26.5731,0 0,-61.75438 z"/>
		<path d="m 402.36403,191.35672 c 0,22.54971 16.09356,40.04679 38.92397,40.04679 22.17544,0 38.83041,-17.49708 38.83041,-40.04679 0,-22.5497 -17.40351,-39.95321 -38.83041,-39.95321 -21.23976,0 -38.92397,17.40351 -38.92397,39.95321 z m 18.99415,0 c 0,-11.50877 6.36257,-23.01754 19.92982,-23.01754 13.66082,0 19.83626,11.50877 19.83626,23.01754 0,11.50878 -5.80117,23.01755 -19.83626,23.01755 -14.40935,0 -19.92982,-11.50877 -19.92982,-23.01755 z"/>
		<path d="m 556.69299,230 17.59064,0 -6.92397,-77.19298 -18.71346,0 -17.1228,44.53801 -17.12281,-44.53801 -18.71345,0 -6.92398,77.19298 17.59065,0 3.64912,-45.75439 0.46784,0 15.81286,45.28655 10.47953,0 15.81287,-45.28655 0.46784,0 L 556.69299,230 Z"/>
		<path d="m 582.86842,191.35672 c 0,22.54971 16.09357,40.04679 38.92398,40.04679 22.17544,0 38.83041,-17.49708 38.83041,-40.04679 0,-22.5497 -17.40351,-39.95321 -38.83041,-39.95321 -21.23977,0 -38.92398,17.40351 -38.92398,39.95321 z m 18.99415,0 c 0,-11.50877 6.36258,-23.01754 19.92983,-23.01754 13.66082,0 19.83626,11.50877 19.83626,23.01754 0,11.50878 -5.80117,23.01755 -19.83626,23.01755 -14.40936,0 -19.92983,-11.50877 -19.92983,-23.01755 z"/>
		<path d="m 690.97513,182.09357 0.18713,0 30.69006,47.90643 17.59065,0 0,-77.19298 -17.59065,0 0,47.90643 -0.18713,0 -30.69006,-47.90643 -17.59064,0 0,77.19298 17.59064,0 0,-47.90643 z"/>
		<path d="m 765.32456,151.40351 c -5.33334,0 -9.63743,4.39766 -9.63743,9.82456 0,4.39766 3.18129,7.76608 7.29824,8.79532 C 761.67543,177.1345 756.52923,182 756.52923,182 l 4.39766,3.46199 c 6.83041,-5.7076 14.22223,-14.03509 14.22223,-24.23392 0,-5.4269 -4.39766,-9.82456 -9.82456,-9.82456 z"/>
		<path d="m 816.36113,151.40351 c -12.44445,0 -25.16959,9.16959 -25.16959,23.57895 0,8.04678 5.4269,15.25146 14.69005,19.83625 9.1696,4.5848 17.40351,7.11111 17.40351,12.72515 0,7.20468 -7.29824,7.57895 -11.1345,7.57895 -8.60819,0 -18.90058,-8.70176 -18.90058,-8.70176 l -8.79533,14.78363 c 0,0 10.94737,10.19883 29.00585,10.19883 15.06433,0 29.09942,-6.45614 29.09942,-24.88889 0,-10.10526 -9.45029,-17.40351 -18.05848,-21.05263 -8.79532,-3.74269 -16.09357,-6.83041 -16.09357,-11.13451 0,-4.21052 3.18129,-6.92397 9.16959,-6.92397 7.95322,0 15.62573,5.33333 15.62573,5.33333 l 7.11111,-14.03509 c 0,0 -9.91813,-7.29824 -23.95321,-7.29824 z"/>
		<path d="m 950.1798,230 17.59065,0 -6.92398,-77.19298 -18.71345,0 -17.12281,44.53801 -17.1228,-44.53801 -18.71345,0 -6.92398,77.19298 17.59064,0 3.64913,-45.75439 0.46783,0 15.81287,45.28655 10.47953,0 15.81287,-45.28655 0.46783,0 L 950.1798,230 Z"/>
		<path d="m 997.4079,152.80702 -17.59064,0 0,77.19298 17.59064,0 0,-77.19298 z"/>
		<path d="m 1031.2822,182.09357 0.1871,0 30.6901,47.90643 17.5906,0 0,-77.19298 -17.5906,0 0,47.90643 -0.1872,0 -30.69,-47.90643 -17.5907,0 0,77.19298 17.5907,0 0,-47.90643 z"/>
		<path d="m 1140.1579,152.80702 -44.1638,0 0,77.19298 44.1638,0 0,-15.4386 -26.5731,0 0,-15.53216 25.4503,0 0,-15.4386 -25.4503,0 0,-15.34503 26.5731,0 0,-15.43859 z"/>
		<path d="m 1183.7149,151.40351 c -12.4445,0 -25.1696,9.16959 -25.1696,23.57895 0,8.04678 5.4269,15.25146 14.6901,19.83625 9.1695,4.5848 17.4035,7.11111 17.4035,12.72515 0,7.20468 -7.2983,7.57895 -11.1345,7.57895 -8.6082,0 -18.9006,-8.70176 -18.9006,-8.70176 l -8.7953,14.78363 c 0,0 10.9473,10.19883 29.0058,10.19883 15.0643,0 29.0994,-6.45614 29.0994,-24.88889 0,-10.10526 -9.4503,-17.40351 -18.0585,-21.05263 -8.7953,-3.74269 -16.0935,-6.83041 -16.0935,-11.13451 0,-4.21052 3.1813,-6.92397 9.1696,-6.92397 7.9532,0 15.6257,5.33333 15.6257,5.33333 l 7.1111,-14.03509 c 0,0 -9.9181,-7.29824 -23.9532,-7.29824 z"/>
	</g>
	<g>
		<path d="m 323.47533,366.77193 18.66667,0 0,23.22807 13.19298,0 0,-57.89474 -13.19298,0 0,23.08772 -18.66667,0 0,-23.08772 -13.19298,0 0,57.89474 13.19298,0 0,-23.22807 z"/>
		<path d="m 376.73629,374.98246 c -4.42105,0 -7.99999,3.57894 -7.99999,8.07017 0,4.42105 3.57894,8 7.99999,8 4.49123,0 8.07018,-3.57895 8.07018,-8 0,-4.49123 -3.57895,-8.07017 -8.07018,-8.07017 z"/>
		<path d="m 422.45888,332.10526 0,57.89474 13.19298,0 0,-22.87719 L 453.33607,390 470.108,390 450.17818,366.07018 c 7.08772,-2.24562 11.85965,-8.07018 11.85965,-16.77193 0,-11.36842 -8.14036,-17.19299 -18.8772,-17.19299 l -20.70175,0 z m 13.19298,25.68421 0,-15.15789 1.54386,0 c 4.98246,0 10.94737,0.35088 10.94737,7.57895 0,7.22807 -5.96491,7.57894 -10.94737,7.57894 l -1.54386,0 z"/>
		<path d="m 490.95339,332.10526 -13.19298,0 0,57.89474 13.19298,0 0,-57.89474 z"/>
		<path d="m 504.41611,332.10526 0,57.89474 16.77193,0 c 15.92982,0 29.19298,-12.07018 29.19298,-28.98246 0,-16.8421 -13.33333,-28.91228 -29.19298,-28.91228 l -16.77193,0 z m 13.19298,46.10527 0,-34.31579 2.03509,0 c 9.82456,0 16.49123,7.50877 16.49123,17.19298 -0.0702,9.68421 -6.73685,17.12281 -16.49123,17.12281 l -2.03509,0 z"/>
		<path d="m 594.34813,332.10526 -33.1228,0 0,57.89474 33.1228,0 0,-11.57895 -19.92982,0 0,-11.64912 19.08772,0 0,-11.57895 -19.08772,0 0,-11.50877 19.92982,0 0,-11.57895 z"/>
		<path d="m 606.93256,332.10526 0,57.89474 13.19298,0 0,-22.87719 17.68421,22.87719 16.77193,0 -19.92982,-23.92982 c 7.08771,-2.24562 11.85964,-8.07018 11.85964,-16.77193 0,-11.36842 -8.14035,-17.19299 -18.87719,-17.19299 l -20.70175,0 z m 13.19298,25.68421 0,-15.15789 1.54386,0 c 4.98246,0 10.94737,0.35088 10.94737,7.57895 0,7.22807 -5.96491,7.57894 -10.94737,7.57894 l -1.54386,0 z"/>
		<path d="m 699.61568,366.77193 18.66667,0 0,23.22807 13.19298,0 0,-57.89474 -13.19298,0 0,23.08772 -18.66667,0 0,-23.08772 -13.19298,0 0,57.89474 13.19298,0 0,-23.22807 z"/>
		<path d="m 774.28016,332.10526 -12.21053,0 L 738.70121,390 l 14.17544,0 4.2807,-11.57895 22.03509,0 4.2807,11.57895 14.17544,0 -23.36842,-57.89474 z m 0.42105,34.73685 -13.05263,0 6.45614,-16.84211 0.14035,0 6.45614,16.84211 z"/>
		<path d="m 857.18913,357.57895 -26.73684,0 0,10.17544 13.33334,0 c 0,7.08772 -6.24562,11.15789 -12.56141,11.15789 -8.14035,0 -14.73684,-8 -14.73684,-17.82456 0,-10.03509 6.59649,-18.10526 14.73684,-18.10526 5.12281,0 9.54386,2.03508 12.91228,7.43859 l 8.63158,-9.47368 c -5.05263,-6.10526 -12.14035,-9.89474 -22.31579,-9.89474 -16.2807,0 -28.21052,13.40351 -28.21052,30.03509 0,16.5614 12.63158,29.96491 28.21052,29.96491 11.36842,0 23.57895,-6.24561 26.73684,-20.91228 l 0,-12.5614 z"/>
		<path d="m 920.30315,357.57895 -26.73684,0 0,10.17544 13.33333,0 c 0,7.08772 -6.24561,11.15789 -12.5614,11.15789 -8.14035,0 -14.73685,-8 -14.73685,-17.82456 0,-10.03509 6.5965,-18.10526 14.73685,-18.10526 5.1228,0 9.54386,2.03508 12.91228,7.43859 l 8.63158,-9.47368 c -5.05264,-6.10526 -12.14035,-9.89474 -22.31579,-9.89474 -16.28071,0 -28.21053,13.40351 -28.21053,30.03509 0,16.5614 12.63158,29.96491 28.21053,29.96491 11.36842,0 23.57894,-6.24561 26.73684,-20.91228 l 0,-12.5614 z"/>
		<path d="m 960.46985,332.10526 -12.21052,0 L 924.89091,390 l 14.17544,0 4.2807,-11.57895 22.03509,0 4.2807,11.57895 14.17544,0 -23.36843,-57.89474 z m 0.42106,34.73685 -13.05263,0 6.45614,-16.84211 0.14035,0 6.45614,16.84211 z"/>
		<path d="m 991.02796,332.10526 0,57.89474 13.19294,0 0,-22.87719 17.6842,22.87719 16.772,0 -19.9298,-23.92982 c 7.0877,-2.24562 11.8596,-8.07018 11.8596,-16.77193 0,-11.36842 -8.1403,-17.19299 -18.8772,-17.19299 l -20.70174,0 z m 13.19294,25.68421 0,-15.15789 1.5439,0 c 4.9825,0 10.9474,0.35088 10.9474,7.57895 0,7.22807 -5.9649,7.57894 -10.9474,7.57894 l -1.5439,0 z"/>
		<path d="m 1046.3295,332.10526 0,57.89474 16.7719,0 c 15.9298,0 29.193,-12.07018 29.193,-28.98246 0,-16.8421 -13.3334,-28.91228 -29.193,-28.91228 l -16.7719,0 z m 13.193,46.10527 0,-34.31579 2.035,0 c 9.8246,0 16.4913,7.50877 16.4913,17.19298 -0.07,9.68421 -6.7369,17.12281 -16.4913,17.12281 l -2.035,0 z"/>
	</g>
</svg>

<?xml version="1.0" encoding="utf-8"?>
<svg xmlns="http://www.w3.org/2000/svg" xmlns:svg="http://www.w3.org/2000/svg" version="1.1" viewBox="0 0 1400 440">
	<title>The titlepage for the Standard Ebooks edition of King Solomon’s Mines, by H. Rider Haggard</title>
	<g aria-label="KING">
		<path d="M 639.72807,130 603.79824,89.391812 634.86257,52.807016 H 613.52924 L 587.04971,84.33918 V 52.807016 H 569.45906 V 130 h 17.59065 V 97.251461 L 615.49415,130 Z"/>
		<path d="M 665.69737,52.807016 H 648.10672 V 130 h 17.59065 z"/>
		<path d="m 699.57163,82.093566 h 0.18714 L 730.44883,130 h 17.59064 V 52.807016 h -17.59064 v 47.906434 h -0.18714 L 699.57163,52.807016 H 681.98099 V 130 h 17.59064 z"/>
		<path d="m 834.0848,86.771929 h -35.64912 v 13.567251 h 17.77778 c 0,9.45029 -8.32749,14.87719 -16.74854,14.87719 -10.8538,0 -19.64912,-10.66666 -19.64912,-23.766078 0,-13.380117 8.79532,-24.140352 19.64912,-24.140352 6.83041,0 12.72515,2.713451 17.21637,9.918129 L 828.19007,64.59649 c -6.73685,-8.140351 -16.18714,-13.192983 -29.75439,-13.192983 -21.7076,0 -37.61404,17.871346 -37.61404,40.046785 0,22.081868 16.84211,39.953218 37.61404,39.953218 15.15789,0 31.4386,-8.32749 35.64912,-27.88304 z"/>
	</g>
	<g aria-label="SOLOMON’S MINES">
		<path d="m 221.53654,151.40351 c -12.44444,0 -25.16959,9.16959 -25.16959,23.57895 0,8.04678 5.4269,15.25146 14.69006,19.83625 9.16959,4.5848 17.40351,7.11111 17.40351,12.72515 0,7.20468 -7.29825,7.57895 -11.1345,7.57895 -8.60819,0 -18.90059,-8.70176 -18.90059,-8.70176 l -8.79532,14.78363 c 0,0 10.94737,10.19883 29.00585,10.19883 15.06432,0 29.09941,-6.45614 29.09941,-24.88889 0,-10.10526 -9.45029,-17.40351 -18.05848,-21.05263 -8.79532,-3.74269 -16.09356,-6.83041 -16.09356,-11.13451 0,-4.21052 3.18128,-6.92397 9.16959,-6.92397 7.95321,0 15.62573,5.33333 15.62573,5.33333 l 7.11111,-14.03509 c 0,0 -9.91813,-7.29824 -23.95322,-7.29824 z"/>
		<path d="m 257.4956,191.35672 c 0,22.54971 16.09357,40.04679 38.92398,40.04679 22.17544,0 38.83041,-17.49708 38.83041,-40.04679 0,-22.5497 -17.40351,-39.95321 -38.83041,-39.95321 -21.23977,0 -38.92398,17.40351 -38.92398,39.95321 z m 18.99415,0 c 0,-11.50877 6.36258,-23.01754 19.92983,-23.01754 13.66082,0 19.83626,11.50877 19.83626,23.01754 0,11.50878 -5.80117,23.01755 -19.83626,23.01755 -14.40936,0 -19.92983,-11.50877 -19.92983,-23.01755 z"/>
		<path d="M 365.60233,152.80702 H 348.01168 V 230 h 44.16375 v -15.4386 h -26.5731 z"/>
		<path d="m 402.36403,191.35672 c 0,22.54971 16.09356,40.04679 38.92397,40.04679 22.17544,0 38.83041,-17.49708 38.83041,-40.04679 0,-22.5497 -17.40351,-39.95321 -38.83041,-39.95321 -21.23976,0 -38.92397,17.40351 -38.92397,39.95321 z m 18.99415,0 c 0,-11.50877 6.36257,-23.01754 19.92982,-23.01754 13.66082,0 19.83626,11.50877 19.83626,23.01754 0,11.50878 -5.80117,23.01755 -19.83626,23.01755 -14.40935,0 -19.92982,-11.50877 -19.92982,-23.01755 z"/>
		<path d="m 556.69299,230 h 17.59064 l -6.92397,-77.19298 H 548.6462 l -17.1228,44.53801 -17.12281,-44.53801 H 495.68714 L 488.76316,230 h 17.59065 l 3.64912,-45.75439 h 0.46784 l 15.81286,45.28655 h 10.47953 l 15.81287,-45.28655 h 0.46784 z"/>
		<path d="m 582.86842,191.35672 c 0,22.54971 16.09357,40.04679 38.92398,40.04679 22.17544,0 38.83041,-17.49708 38.83041,-40.04679 0,-22.5497 -17.40351,-39.95321 -38.83041,-39.95321 -21.23977,0 -38.92398,17.40351 -38.92398,39.95321 z m 18.99415,0 c 0,-11.50877 6.36258,-23.01754 19.92983,-23.01754 13.66082,0 19.83626,11.50877 19.83626,23.01754 0,11.50878 -5.80117,23.01755 -19.83626,23.01755 -14.40936,0 -19.92983,-11.50877 -19.92983,-23.01755 z"/>
		<path d="m 690.97513,182.09357 h 0.18713 L 721.85232,230 h 17.59065 v -77.19298 h -17.59065 v 47.90643 h -0.18713 L 690.97513,152.80702 H 673.38449 V 230 h 17.59064 z"/>
		<path d="m 765.32456,151.40351 c -5.33334,0 -9.63743,4.39766 -9.63743,9.82456 0,4.39766 3.18129,7.76608 7.29824,8.79532 C 761.67543,177.1345 756.52923,182 756.52923,182 l 4.39766,3.46199 c 6.83041,-5.7076 14.22223,-14.03509 14.22223,-24.23392 0,-5.4269 -4.39766,-9.82456 -9.82456,-9.82456 z"/>
		<path d="m 816.36113,151.40351 c -12.44445,0 -25.16959,9.16959 -25.16959,23.57895 0,8.04678 5.4269,15.25146 14.69005,19.83625 9.1696,4.5848 17.40351,7.11111 17.40351,12.72515 0,7.20468 -7.29824,7.57895 -11.1345,7.57895 -8.60819,0 -18.90058,-8.70176 -18.90058,-8.70176 l -8.79533,14.78363 c 0,0 10.94737,10.19883 29.00585,10.19883 15.06433,0 29.09942,-6.45614 29.09942,-24.88889 0,-10.10526 -9.45029,-17.40351 -18.05848,-21.05263 -8.79532,-3.74269 -16.09357,-6.83041 -16.09357,-11.13451 0,-4.21052 3.18129,-6.92397 9.16959,-6.92397 7.95322,0 15.62573,5.33333 15.62573,5.33333 l 7.11111,-14.03509 c 0,0 -9.91813,-7.29824 -23.95321,-7.29824 z"/>
		<path d="m 950.1798,230 h 17.59065 l -6.92398,-77.19298 h -18.71345 l -17.12281,44.53801 -17.1228,-44.53801 H 889.17396 L 882.24998,230 h 17.59064 l 3.64913,-45.75439 h 0.46783 l 15.81287,45.28655 h 10.47953 l 15.81287,-45.28655 h 0.46783 z"/>
		<path d="M 997.4079,152.80702 H 979.81726 V 230 h 17.59064 z"/>
		<path d="m 1031.2822,182.09357 h 0.1871 L 1062.1594,230 h 17.5906 v -77.19298 h -17.5906 v 47.90643 h -0.1872 l -30.69,-47.90643 h -17.5907 V 230 h 17.5907 z"/>
		<path d="m 1140.1579,152.80702 h -44.1638 V 230 h 44.1638 v -15.4386 h -26.5731 v -15.53216 h 25.4503 v -15.4386 h -25.4503 v -15.34503 h 26.5731 z"/>
		<path d="m 1183.7149,151.40351 c -12.4445,0 -25.1696,9.16959 -25.1696,23.57895 0,8.04678 5.4269,15.25146 14.6901,19.83625 9.1695,4.5848 17.4035,7.11111 17.4035,12.72515 0,7.20468 -7.2983,7.57895 -11.1345,7.57895 -8.6082,0 -18.9006,-8.70176 -18.9006,-8.70176 l -8.7953,14.78363 c 0,0 10.9473,10.19883 29.0058,10.19883 15.0643,0 29.0994,-6.45614 29.0994,-24.88889 0,-10.10526 -9.4503,-17.40351 -18.0585,-21.05263 -8.7953,-3.74269 -16.0935,-6.83041 -16.0935,-11.13451 0,-4.21052 3.1813,-6.92397 9.1696,-6.92397 7.9532,0 15.6257,5.33333 15.6257,5.33333 l 7.1111,-14.03509 c 0,0 -9.9181,-7.29824 -23.9532,-7.29824 z"/>
	</g>
	<g aria-label="H. RIDER HAGGARD">
		<path d="M 323.47533,366.77193 H 342.142 V 390 h 13.19298 V 332.10526 H 342.142 v 23.08772 H 323.47533 V 332.10526 H 310.28235 V 390 h 13.19298 z"/>
		<path d="m 376.73629,374.98246 c -4.42105,0 -7.99999,3.57894 -7.99999,8.07017 0,4.42105 3.57894,8 7.99999,8 4.49123,0 8.07018,-3.57895 8.07018,-8 0,-4.49123 -3.57895,-8.07017 -8.07018,-8.07017 z"/>
		<path d="M 422.45888,332.10526 V 390 h 13.19298 V 367.12281 L 453.33607,390 H 470.108 l -19.92982,-23.92982 c 7.08772,-2.24562 11.85965,-8.07018 11.85965,-16.77193 0,-11.36842 -8.14036,-17.19299 -18.8772,-17.19299 z m 13.19298,25.68421 v -15.15789 h 1.54386 c 4.98246,0 10.94737,0.35088 10.94737,7.57895 0,7.22807 -5.96491,7.57894 -10.94737,7.57894 z"/>
		<path d="M 490.95339,332.10526 H 477.76041 V 390 h 13.19298 z"/>
		<path d="M 504.41611,332.10526 V 390 h 16.77193 c 15.92982,0 29.19298,-12.07018 29.19298,-28.98246 0,-16.8421 -13.33333,-28.91228 -29.19298,-28.91228 z m 13.19298,46.10527 v -34.31579 h 2.03509 c 9.82456,0 16.49123,7.50877 16.49123,17.19298 -0.0702,9.68421 -6.73685,17.12281 -16.49123,17.12281 z"/>
		<path d="m 594.34813,332.10526 h -33.1228 V 390 h 33.1228 v -11.57895 h -19.92982 v -11.64912 h 19.08772 v -11.57895 h -19.08772 v -11.50877 h 19.92982 z"/>
		<path d="M 606.93256,332.10526 V 390 h 13.19298 V 367.12281 L 637.80975,390 h 16.77193 l -19.92982,-23.92982 c 7.08771,-2.24562 11.85964,-8.07018 11.85964,-16.77193 0,-11.36842 -8.14035,-17.19299 -18.87719,-17.19299 z m 13.19298,25.68421 v -15.15789 h 1.54386 c 4.98246,0 10.94737,0.35088 10.94737,7.57895 0,7.22807 -5.96491,7.57894 -10.94737,7.57894 z"/>
		<path d="m 699.61568,366.77193 h 18.66667 V 390 h 13.19298 v -57.89474 h -13.19298 v 23.08772 H 699.61568 V 332.10526 H 686.4227 V 390 h 13.19298 z"/>
		<path d="M 774.28016,332.10526 H 762.06963 L 738.70121,390 h 14.17544 l 4.2807,-11.57895 h 22.03509 L 783.47314,390 h 14.17544 z m 0.42105,34.73685 H 761.64858 L 768.10472,350 h 0.14035 z"/>
		<path d="m 857.18913,357.57895 h -26.73684 v 10.17544 h 13.33334 c 0,7.08772 -6.24562,11.15789 -12.56141,11.15789 -8.14035,0 -14.73684,-8 -14.73684,-17.82456 0,-10.03509 6.59649,-18.10526 14.73684,-18.10526 5.12281,0 9.54386,2.03508 12.91228,7.43859 l 8.63158,-9.47368 c -5.05263,-6.10526 -12.14035,-9.89474 -22.31579,-9.89474 -16.2807,0 -28.21052,13.40351 -28.21052,30.03509 0,16.5614 12.63158,29.96491 28.21052,29.96491 11.36842,0 23.57895,-6.24561 26.73684,-20.91228 z"/>
		<path d="m 920.30315,357.57895 h -26.73684 v 10.17544 h 13.33333 c 0,7.08772 -6.24561,11.15789 -12.5614,11.15789 -8.14035,0 -14.73685,-8 -14.73685,-17.82456 0,-10.03509 6.5965,-18.10526 14.73685,-18.10526 5.1228,0 9.54386,2.03508 12.91228,7.43859 l 8.63158,-9.47368 c -5.05264,-6.10526 -12.14035,-9.89474 -22.31579,-9.89474 -16.28071,0 -28.21053,13.40351 -28.21053,30.03509 0,16.5614 12.63158,29.96491 28.21053,29.96491 11.36842,0 23.57894,-6.24561 26.73684,-20.91228 z"/>
		<path d="M 960.46985,332.10526 H 948.25933 L 924.89091,390 h 14.17544 l 4.2807,-11.57895 h 22.03509 L 969.66284,390 h 14.17544 z m 0.42106,34.73685 H 947.83828 L 954.29442,350 h 0.14035 z"/>
		<path d="M 991.02796,332.10526 V 390 h 13.19294 V 367.12281 L 1021.9051,390 h 16.772 l -19.9298,-23.92982 c 7.0877,-2.24562 11.8596,-8.07018 11.8596,-16.77193 0,-11.36842 -8.1403,-17.19299 -18.8772,-17.19299 z m 13.19294,25.68421 v -15.15789 h 1.5439 c 4.9825,0 10.9474,0.35088 10.9474,7.57895 0,7.22807 -5.9649,7.57894 -10.9474,7.57894 z"/>
		<path d="M 1046.3295,332.10526 V 390 h 16.7719 c 15.9298,0 29.193,-12.07018 29.193,-28.98246 0,-16.8421 -13.3334,-28.91228 -29.193,-28.91228 z m 13.193,46.10527 v -34.31579 h 2.035 c 9.8246,0 16.4913,7.50877 16.4913,17.19298 -0.07,9.68421 -6.7369,17.12281 -16.4913,17.12281 z"/>
	</g>
</svg>
